apps/scalable/tixat.svg

<svg xmlns="http://www.w3.org/2000/svg" style="isolation:isolate" width="256" height="256"><defs><filter id="a" width="270.648" height="254.338" x="-7.32" y="2.95" filterUnits="userSpaceOnUse"><feGaussianBlur xmlns="http://www.w3.org/2000/svg" in="SourceGraphic" stdDeviation="4.294"/><feOffset xmlns="http://www.w3.org/2000/svg" dy="4" result="pf_100_offsetBlur"/><feFlood xmlns="http://www.w3.org/2000/svg" flood-opacity=".4"/><feComposite xmlns="http://www.w3.org/2000/svg" in2="pf_100_offsetBlur" operator="in" result="pf_100_dropShadow"/><feBlend xmlns="http://www.w3.org/2000/svg" in="SourceGraphic" in2="pf_100_dropShadow"/></filter></defs><g filter="url(#a)"><linearGradient id="b" x1=".233" x2=".933" y1="-.071" y2=".995" gradientTransform="matrix(244.648 0 0 228.338 5.676 11.947)" gradientUnits="userSpaceOnUse"><stop offset="0%" stop-color="#e8e8e8"/><stop offset="100%" stop-color="#f5f5f5"/></linearGradient><path fill="url(#b)" d="M165.685 11.947c74.055 0 84.639 10.557 84.639 84.544v59.251c0 73.986-10.584 84.543-84.639 84.543h-75.37c-74.055 0-84.639-10.557-84.639-84.543V96.491c0-73.987 10.584-84.544 84.639-84.544h75.37z"/></g><g opacity=".4"><linearGradient id="c" x1=".517" x2=".517" y2="1"><stop offset="0%" stop-color="#fff"/><stop offset="12.5%" stop-opacity=".098" stop-color="#fff"/><stop offset="92.5%" stop-opacity=".098"/><stop offset="100%" stop-opacity=".498"/></linearGradient><path fill="none" stroke="url(#c)" stroke-linecap="round" stroke-linejoin="round" stroke-width="4.077" d="M165.685 11.947c74.055 0 84.639 10.557 84.639 84.544v59.251c0 73.986-10.584 84.543-84.639 84.543h-75.37c-74.055 0-84.639-10.557-84.639-84.543V96.491c0-73.987 10.584-84.544 84.639-84.544h75.37z" vector-effect="non-scaling-stroke"/></g><path fill="#FFF" d="M5.676 126.116v29.626c0 73.986 10.584 84.543 84.639 84.543h75.37c74.055 0 84.639-10.557 84.639-84.543v-29.626H5.676z" opacity=".1"/><path fill="#FFF" d="M128 11.947v228.338h37.685c74.055 0 84.639-10.557 84.639-84.543V96.491c0-73.987-10.584-84.544-84.639-84.544H128z" opacity=".2"/><defs><filter id="d" width="129.129" height="138.521" x="63.43" y="54.13" filterUnits="userSpaceOnUse"><feGaussianBlur xmlns="http://www.w3.org/2000/svg" stdDeviation=".993"/></filter></defs><path fill="#0C100A" d="M124.459 56.44L66.143 184.734a3.89 3.89 0 0 0 3.907 5.578 3.888 3.888 0 0 0 3.17-2.364l54.774-120.511 54.78 120.511a3.888 3.888 0 1 0 7.077-3.214L131.536 56.44h-7.077z" opacity=".3" filter="url(#d)"/><defs><filter id="e" width="132.981" height="140.761" x="59.56" y="51.81" filterUnits="userSpaceOnUse"><feGaussianBlur xmlns="http://www.w3.org/2000/svg" stdDeviation=".993"/></filter></defs><path fill="#031000" d="M65.879 54.121a3.888 3.888 0 0 0-2.916 6.589L183.48 189.004a3.888 3.888 0 1 0 5.665-5.326L68.628 55.384a3.889 3.889 0 0 0-2.749-1.263z" opacity=".3" filter="url(#e)"/><defs><filter id="f" width="132.987" height="140.762" x="63.46" y="51.8" filterUnits="userSpaceOnUse"><feGaussianBlur xmlns="http://www.w3.org/2000/svg" stdDeviation=".993"/></filter></defs><path fill="#030E00" d="M190.391 54.121a3.89 3.89 0 0 0-3.025 1.263L66.849 183.678a3.887 3.887 0 1 0 5.665 5.326L193.037 60.71a3.888 3.888 0 0 0-2.646-6.589z" opacity=".3" filter="url(#f)"/><defs><filter id="g" width="152.627" height="12.403" x="51.69" y="51.85" filterUnits="userSpaceOnUse"><feGaussianBlur xmlns="http://www.w3.org/2000/svg" stdDeviation=".993"/></filter></defs><path fill="#030E00" d="M58.021 54.161a3.89 3.89 0 1 0 0 7.772h139.958a3.888 3.888 0 1 0 0-7.772H58.021z" opacity=".3" filter="url(#g)"/><defs><filter id="h" width="12.405" height="148.53" x="121.8" y="51.79" filterUnits="userSpaceOnUse"><feGaussianBlur xmlns="http://www.w3.org/2000/svg" stdDeviation=".993"/></filter></defs><path d="M127.937 54.104a3.89 3.89 0 0 0-3.829 3.943v136.071a3.889 3.889 0 1 0 7.778 0V58.047a3.89 3.89 0 0 0-3.949-3.943z" opacity=".3" filter="url(#h)"/><g><path fill="#CB0D0D" d="M124.459 56.44L66.143 184.734a3.89 3.89 0 0 0 3.907 5.578 3.888 3.888 0 0 0 3.17-2.364l54.774-120.511 54.78 120.511a3.888 3.888 0 1 0 7.077-3.214L131.536 56.44h-7.077z"/><path fill="#39DB0E" d="M65.879 54.121a3.888 3.888 0 0 0-2.916 6.589L183.48 189.004a3.888 3.888 0 1 0 5.665-5.326L68.628 55.384a3.889 3.889 0 0 0-2.749-1.263z"/><path stroke="#39DB0E" stroke-linecap="round" stroke-width="10" vector-effect="non-scaling-stroke" d="M190.201 58.047L69.683 186.341"/><path fill="#0175FF" d="M58.021 54.161a3.89 3.89 0 1 0 0 7.772h139.958a3.888 3.888 0 1 0 0-7.772H58.021z"/><path fill="#0175FF" d="M127.937 54.104a3.89 3.89 0 0 0-3.829 3.943v136.071a3.889 3.889 0 1 0 7.778 0V58.047a3.89 3.89 0 0 0-3.949-3.943z"/></g></svg>

<svg xmlns="http://www.w3.org/2000/svg" style="isolation:isolate" width="256" height="256" viewBox="0 0 256 256">
 <defs>
  <filter id="zBBWIhq4skhxhQS0RC9bAL0y1GxF4P7n" width="270.648" height="254.338" x="-7.32" y="2.95" filterUnits="userSpaceOnUse">
   <feGaussianBlur xmlns="http://www.w3.org/2000/svg" in="SourceGraphic" stdDeviation="4.294"/>
   <feOffset xmlns="http://www.w3.org/2000/svg" dx="0" dy="4" result="pf_100_offsetBlur"/>
   <feFlood xmlns="http://www.w3.org/2000/svg" flood-opacity=".4"/>
   <feComposite xmlns="http://www.w3.org/2000/svg" in2="pf_100_offsetBlur" operator="in" result="pf_100_dropShadow"/>
   <feBlend xmlns="http://www.w3.org/2000/svg" in="SourceGraphic" in2="pf_100_dropShadow" mode="normal"/>
  </filter>
 </defs>
 <g filter="url(#zBBWIhq4skhxhQS0RC9bAL0y1GxF4P7n)">
  <linearGradient id="_lgradient_9" x1=".233" x2=".933" y1="-.071" y2=".995" gradientTransform="matrix(244.648,0,0,228.338,5.676,11.947)" gradientUnits="userSpaceOnUse">
   <stop offset="0%" style="stop-color:rgb(232,232,232)"/>
   <stop offset="100%" style="stop-color:rgb(245,245,245)"/>
  </linearGradient>
  <path fill="url(#_lgradient_9)" d="M 165.685 11.947 C 239.74 11.947 250.324 22.504 250.324 96.491 L 250.324 155.742 C 250.324 229.728 239.74 240.285 165.685 240.285 L 90.315 240.285 C 16.26 240.285 5.676 229.728 5.676 155.742 L 5.676 96.491 C 5.676 22.504 16.26 11.947 90.315 11.947 L 165.685 11.947 Z"/>
 </g>
 <g opacity=".4">
  <linearGradient id="_lgradient_10" x1=".517" x2=".517" y1="0" y2="1">
   <stop offset="0%" style="stop-color:rgb(255,255,255)"/>
   <stop offset="12.5%" stop-opacity=".098" style="stop-color:rgb(255,255,255)"/>
   <stop offset="92.5%" stop-opacity=".098" style="stop-color:rgb(0,0,0)"/>
   <stop offset="100%" stop-opacity=".498" style="stop-color:rgb(0,0,0)"/>
  </linearGradient>
  <path fill="none" stroke="url(#_lgradient_10)" stroke-linecap="round" stroke-linejoin="round" stroke-width="4.077" d="M 165.685 11.947 C 239.74 11.947 250.324 22.504 250.324 96.491 L 250.324 155.742 C 250.324 229.728 239.74 240.285 165.685 240.285 L 90.315 240.285 C 16.26 240.285 5.676 229.728 5.676 155.742 L 5.676 96.491 C 5.676 22.504 16.26 11.947 90.315 11.947 L 165.685 11.947 Z" vector-effect="non-scaling-stroke"/>
 </g>
 <g opacity=".1">
  <path fill="#FFFFFF" d="M 5.676 126.116 L 5.676 155.742 C 5.676 229.728 16.26 240.285 90.315 240.285 L 165.685 240.285 C 239.74 240.285 250.324 229.728 250.324 155.742 L 250.324 126.116 L 5.676 126.116 Z"/>
 </g>
 <g opacity=".2">
  <path fill="#FFFFFF" d="M 128 11.947 L 128 240.285 L 165.685 240.285 C 239.74 240.285 250.324 229.728 250.324 155.742 L 250.324 96.491 C 250.324 22.504 239.74 11.947 165.685 11.947 L 128 11.947 Z"/>
 </g>
 <g>
  <g>
   <defs>
    <filter id="Y6OtJdywAbU7t2Wu9DWlZOMljkxLpfFO" width="129.129" height="138.521" x="63.43" y="54.13" filterUnits="userSpaceOnUse">
     <feGaussianBlur xmlns="http://www.w3.org/2000/svg" stdDeviation=".993"/>
    </filter>
   </defs>
   <g opacity=".3" filter="url(#Y6OtJdywAbU7t2Wu9DWlZOMljkxLpfFO)">
    <path fill="#0C100A" d="M 124.459 56.44 L 66.143 184.734 C 65.52 186.006 65.637 187.516 66.45 188.677 C 67.262 189.837 68.642 190.463 70.05 190.312 C 71.458 190.16 72.673 189.255 73.22 187.948 L 127.994 67.437 L 182.774 187.948 C 183.321 189.255 184.536 190.16 185.944 190.312 C 187.353 190.463 188.732 189.837 189.545 188.677 C 190.357 187.516 190.475 186.006 189.851 184.734 L 131.536 56.44 L 124.459 56.44 Z"/>
   </g>
   <defs>
    <filter id="HyKYr7Iga7u5onj89j0PjX5oKcEBcktU" width="132.981" height="140.761" x="59.56" y="51.81" filterUnits="userSpaceOnUse">
     <feGaussianBlur xmlns="http://www.w3.org/2000/svg" stdDeviation=".993"/>
    </filter>
   </defs>
   <g opacity=".3" filter="url(#HyKYr7Iga7u5onj89j0PjX5oKcEBcktU)">
    <path fill="#031000" d="M 65.879 54.121 C 64.297 54.072 62.843 54.987 62.203 56.434 C 61.562 57.882 61.863 59.573 62.963 60.71 L 183.48 189.004 C 184.428 190.03 185.854 190.469 187.215 190.153 C 188.576 189.837 189.662 188.815 190.062 187.476 C 190.461 186.138 190.111 184.688 189.145 183.678 L 68.628 55.384 C 67.92 54.609 66.928 54.154 65.879 54.121 Z"/>
   </g>
   <defs>
    <filter id="lKkZjr9Y4pIF6ofWYaTNVEkKUfOhWGKx" width="132.987" height="140.762" x="63.46" y="51.8" filterUnits="userSpaceOnUse">
     <feGaussianBlur xmlns="http://www.w3.org/2000/svg" stdDeviation=".993"/>
    </filter>
   </defs>
   <g opacity=".3" filter="url(#lKkZjr9Y4pIF6ofWYaTNVEkKUfOhWGKx)">
    <path fill="#030E00" d="M 190.391 54.121 C 189.246 54.076 188.139 54.538 187.366 55.384 L 66.849 183.678 C 65.883 184.688 65.534 186.138 65.933 187.476 C 66.332 188.815 67.419 189.837 68.779 190.153 C 70.14 190.469 71.566 190.03 72.514 189.004 L 193.037 60.71 C 194.104 59.608 194.422 57.981 193.851 56.558 C 193.279 55.134 191.924 54.18 190.391 54.121 Z"/>
   </g>
   <defs>
    <filter id="S3i656NyGUMQDNjOHkI8Kasxce5Avz95" width="152.627" height="12.403" x="51.69" y="51.85" filterUnits="userSpaceOnUse">
     <feGaussianBlur xmlns="http://www.w3.org/2000/svg" stdDeviation=".993"/>
    </filter>
   </defs>
   <g opacity=".3" filter="url(#S3i656NyGUMQDNjOHkI8Kasxce5Avz95)">
    <path fill="#030E00" d="M 58.021 54.161 C 56.601 54.113 55.268 54.842 54.543 56.065 C 53.819 57.287 53.819 58.807 54.543 60.03 C 55.268 61.252 56.601 61.982 58.021 61.933 L 197.979 61.933 C 199.399 61.982 200.732 61.252 201.457 60.03 C 202.181 58.807 202.181 57.287 201.457 56.065 C 200.732 54.842 199.399 54.113 197.979 54.161 L 58.021 54.161 Z"/>
   </g>
   <defs>
    <filter id="WOLtEgdq9JOsjp7C3HfDUjtBPrZCXXnc" width="12.405" height="148.53" x="121.8" y="51.79" filterUnits="userSpaceOnUse">
     <feGaussianBlur xmlns="http://www.w3.org/2000/svg" stdDeviation=".993"/>
    </filter>
   </defs>
   <g opacity=".3" filter="url(#WOLtEgdq9JOsjp7C3HfDUjtBPrZCXXnc)">
    <path d="M 127.937 54.104 C 125.791 54.137 124.078 55.902 124.108 58.047 L 124.108 194.118 C 124.108 196.266 125.849 198.007 127.997 198.007 C 130.145 198.007 131.886 196.266 131.886 194.118 L 131.886 58.047 C 131.901 56.996 131.489 55.983 130.745 55.24 C 130.001 54.497 128.988 54.088 127.937 54.104 L 127.937 54.104 Z"/>
   </g>
  </g>
  <g>
   <path fill="#CB0D0D" d="M 124.459 56.44 L 66.143 184.734 C 65.52 186.006 65.637 187.516 66.45 188.677 C 67.262 189.837 68.642 190.463 70.05 190.312 C 71.458 190.16 72.673 189.255 73.22 187.948 L 127.994 67.437 L 182.774 187.948 C 183.321 189.255 184.536 190.16 185.944 190.312 C 187.353 190.463 188.732 189.837 189.545 188.677 C 190.357 187.516 190.475 186.006 189.851 184.734 L 131.536 56.44 L 124.459 56.44 Z"/>
   <path fill="#39DB0E" d="M 65.879 54.121 C 64.297 54.072 62.843 54.987 62.203 56.434 C 61.562 57.882 61.863 59.573 62.963 60.71 L 183.48 189.004 C 184.428 190.03 185.854 190.469 187.215 190.153 C 188.576 189.837 189.662 188.815 190.062 187.476 C 190.461 186.138 190.111 184.688 189.145 183.678 L 68.628 55.384 C 67.92 54.609 66.928 54.154 65.879 54.121 Z"/>
   <line stroke="#39DB0E" stroke-linecap="round" stroke-width="10" x1="190.201" x2="69.683" y1="58.047" y2="186.341" vector-effect="non-scaling-stroke"/>
   <path fill="#0175FF" d="M 58.021 54.161 C 56.601 54.113 55.268 54.842 54.543 56.065 C 53.819 57.287 53.819 58.807 54.543 60.03 C 55.268 61.252 56.601 61.982 58.021 61.933 L 197.979 61.933 C 199.399 61.982 200.732 61.252 201.457 60.03 C 202.181 58.807 202.181 57.287 201.457 56.065 C 200.732 54.842 199.399 54.113 197.979 54.161 L 58.021 54.161 Z"/>
   <path fill="#0175FF" d="M 127.937 54.104 C 125.791 54.137 124.078 55.902 124.108 58.047 L 124.108 194.118 C 124.108 196.266 125.849 198.007 127.997 198.007 C 130.145 198.007 131.886 196.266 131.886 194.118 L 131.886 58.047 C 131.901 56.996 131.489 55.983 130.745 55.24 C 130.001 54.497 128.988 54.088 127.937 54.104 L 127.937 54.104 Z"/>
  </g>
 </g>
</svg>
